X:1
T:Title
L:1/8
Q:1/4=130
M:6/4
K:Bb
V:1 treble nm="Church Organ, Staff"
V:1
 D2 F4 G2 A4 | d2 c4 A2 G4 | F2 B2 c2 A2 G4 | FF B2 c2 A2 G4 | G2 c2 c2 d2 e4 | d2 c2 B2 G2 F4- | %6
w: By~R.~Vaughan~Williams * * *||||||
 F2 F2 B2 G2 F4 | E2 F2 B2 G2 F4 | F2 c4 d2 e4 | d2 c2 B2 c2 G4 | G2 F2 F2 G2 A4 | %11
w: |||||
[M:9/4] d2 c4 A2 G4- G2 G4 |[M:6/4] F2 G4- G2 G4 |] %13
w: ||

